X:28
T:Scotch Hornpipe. JGi.028
T:Staten Island,aka. JGi.028
M:C|
L:1/8
Q:1/2=90
S:Joshua Gibbons MS,1823,Tealby,Lincs.
R:.hornpipe
O:Tealby,Lincolnshire
Z:VMP/R.Greig, 2009
K:D
AG|FDFGA2A2|defec2Ac|B2GBA2FA|G2E2E2AG|
FDFGA2A2|defdc2A2|d2d2efge|f2d2d2:|
|:fg|a2afg2ge|f2fde2cA|d2d2efgf|c2A2A2fg|
a2afg2ge|f2fde2cA|d2d2efge|f2d2d2:|

